X:3055
T:Lapp-Nils Polska e.Erik Nilsson
L:1/8
M:3/4
N:YDW. e. Lasse Srlin  (check !)
Z:Richard Robinson 
%%TUNEURL: http://www.leeds.ac.uk/music/Info/RRTuneBk/gettune/00001147.html
%%ID:00001147
K:D
e/g/ |\
{f/g/}f>e d>c d>c | {B/c/}B>A (3GBG [EA]2- | [EA]>d cd e>f | (3gec e>d de/g/ |
{f/g/}f>e d>c d>c | {B/c/}B>A (3GBG [EA]2- | [EA]>d cd e>f | (3gec [Dd]3 D ||
F>D D>A d>c | {B/c/}B>A (3GBG [EA]2- | [EA]>d c>d e>f | (3gec e>d d>D |
F>D D>A d>c | {B/c/}B>A (3GBG [EA]2- | [EA]>d c>d e>f | (3gec [Dd]4 ||
(3f/g/f/e/f/ [df][df]/[df]/ [df]2 | [df][df]/[df]/ dc [DB]- | \
[DB]>F G>A B>d | (3cBc [Dd]2 [DA]2- |
[DA]2 [df][df]/[df]/ [df]2 | [df][df]/[df]/ dc [DB]2- |\
[DB]>F G>A B>d | (3cBc [Dd]4 :|
